src/cmd/lc_hidecolumn.svg

<svg viewBox="0 0 24 24" xmlns="http://www.w3.org/2000/svg"><path d="m4 4v1 12.878906l1-1v-1.878906h1.8789062l1.1210938-1.121094v-3.878906h1v-1h-1v-1-3h1 1 1 2 1 1 1v.8789062l1.878906-1.8789062zm15.292969 0-15.292969 15.292969.7070312.707031 15.2929688-15.2929688zm-14.292969 1h2v3 1h-1.0996094-.9003906zm15 1.1210938-1 1v1.8789062h-1-.878906l-1.121094 1.121094v3.878906h-1v1h1v4h-1-1-1-2-1-1-1v-.878906l-1.8789062 1.878906h12.8789062 1zm-15 3.8789062h2v4h-2zm12 0h1 1v4h-1-1zm0 5h1 1v4h-2v-3z" fill="#232629"/><path d="m9 5v7.878906l1-1v-1.171875l4-3.9999998v1.171875l1-1v-1.171875-.7070312h-.707031-.292969v.2929688l-4 4v-4.2929688zm6 6.121094-1 1v1.171875l-4 4v-1.171875l-1 1v1.878906h1v-.292969l4-4v4.292969h1v-5.292969z" fill="#762572"/></svg>

<?xml version="1.0" encoding="UTF-8" standalone="no"?>
<svg
   xmlns:dc="http://purl.org/dc/elements/1.1/"
   xmlns:cc="http://creativecommons.org/ns#"
   xmlns:rdf="http://www.w3.org/1999/02/22-rdf-syntax-ns#"
   xmlns:svg="http://www.w3.org/2000/svg"
   xmlns="http://www.w3.org/2000/svg"
   xmlns:sodipodi="http://sodipodi.sourceforge.net/DTD/sodipodi-0.dtd"
   xmlns:inkscape="http://www.inkscape.org/namespaces/inkscape"
   viewBox="0 0 24 24"
   version="1.1"
   id="svg6"
   sodipodi:docname="lc_hidecolumn.svg"
   inkscape:version="0.92.4 (5da689c313, 2019-01-14)">
  <metadata
     id="metadata12">
    <rdf:RDF>
      <cc:Work
         rdf:about="">
        <dc:format>image/svg+xml</dc:format>
        <dc:type
           rdf:resource="http://purl.org/dc/dcmitype/StillImage" />
      </cc:Work>
    </rdf:RDF>
  </metadata>
  <defs
     id="defs10" />
  <sodipodi:namedview
     pagecolor="#ffffff"
     bordercolor="#666666"
     borderopacity="1"
     objecttolerance="10"
     gridtolerance="10"
     guidetolerance="10"
     inkscape:pageopacity="0"
     inkscape:pageshadow="2"
     inkscape:window-width="1920"
     inkscape:window-height="1011"
     id="namedview8"
     showgrid="true"
     inkscape:zoom="39.333333"
     inkscape:cx="13.672414"
     inkscape:cy="8.9403962"
     inkscape:window-x="1920"
     inkscape:window-y="32"
     inkscape:window-maximized="1"
     inkscape:current-layer="svg6">
    <inkscape:grid
       type="xygrid"
       id="grid822" />
  </sodipodi:namedview>
  <path
     d="m 4,6 v 11.878906 l 1,-1 V 15 H 6.8789062 L 8,13.878906 V 10 H 9 V 9 H 8 V 8 5 h 1 1 1 2 1 1 1 V 5.8789062 L 17.878906,4 H 7 C 5,4 4,4 4,6 Z M 19.292969,4 4,19.292969 4.7070312,20 20,4.7070312 Z M 5,6 C 5,5 6,5 7,5 V 8 9 H 5.9003906 5 Z m 15,0.1210938 -1,1 V 9 H 18 17.121094 L 16,10.121094 V 14 h -1 v 1 h 1 v 4 H 15 14 13 11 10 9 8 V 18.121094 L 6.1210938,20 H 17 c 2,0 3,0 3,-2 z M 5,10 h 2 v 4 H 5 Z m 12,0 h 1 1 v 4 h -1 -1 z m 0,5 h 1 1 v 3 c 0,1 -1,1 -2,1 v -3 z"
     id="path2"
     inkscape:connector-curvature="0"
     style="fill:#232629"
     sodipodi:nodetypes="ccccccccccccccccccccccccccccccccccccccccccccccccccccccccccccccccccccccccccccc" />
  <path
     d="m9 5v7.878906l1-1v-1.171875l4-3.9999998v1.171875l1-1v-1.171875-.7070312h-.707031-.292969v.2929688l-4 4v-4.2929688zm6 6.121094-1 1v1.171875l-4 4v-1.171875l-1 1v1.878906h1v-.292969l4-4v4.292969h1v-5.292969z"
     fill="#762572"
     id="path4" />
</svg>
